src/images/header/phone.svg

<svg fill="none" height="18" viewBox="0 0 18 18" width="18" xmlns="http://www.w3.org/2000/svg"><path d="m3.00056 5.77163c0 .52762.1935 1.10756.43932 1.72293.24581.61538.5625 1.19532.80887 1.63463.66825 1.16041 1.52944 2.30291 2.51381 3.25181.98438.9489 2.14481 1.7404 3.44534 2.2151.756.2987 1.512.6328 2.3557.6328.4219 0 1.0198-.158 1.5643-.387.5277-.2283 1.0018-.5799 1.1779-1.0018.0703-.158.1581-.369.2109-.6153.0529-.2284.0878-.4574.0878-.6154 0-.0878 0-.1761-.0174-.1935-.0529-.1058-.1761-.1935-.3167-.2813-.3167-.158-.369-.2109-.8438-.4922-.4922-.2812-1.0018-.5979-1.4417-.8263-.2109-.1232-.3515-.176-.4044-.176-.2813 0-.6328.387-.9315.8088-.3167.4219-.6682.8089-.9141.8089-.1231 0-.2463-.0529-.387-.1406-.1406-.0878-.2812-.1581-.36896-.2109-1.54688-.8792-2.58413-1.91592-3.46275-3.44536-.10575-.17606-.35157-.54506-.35157-.73856 0-.22838.31669-.49219.63282-.77344.29869-.26381.61537-.57994.61537-.96694 0-.05287-.03543-.21094-.10575-.43931-.15806-.45731-.369-.98438-.54506-1.494-.08775-.24638-.15806-.42188-.17606-.50963-.03544-.05287-.05288-.12318-.07032-.21093-.01743-.08775-.05287-.15807-.07031-.22838-.05287-.15806-.14062-.28125-.22837-.35156-.08775-.03544-.29869-.08775-.50963-.10575-.21094 0-.45731-.01744-.5625-.01744-.05287 0-.12318 0-.1935.01744h-.22837c-.5625.24637-.96694.73856-1.26563 1.3185-.28125.57994-.45731 1.23075-.45731 1.81069z" fill="#fff"/></svg>

<svg width="18" height="18" viewBox="0 0 18 18" fill="none" xmlns="http://www.w3.org/2000/svg">
<g id="phone-svgrepo-com (2) 1">
<path id="Vector" d="M3.00056 5.77163C3.00056 6.29925 3.19406 6.87919 3.43988 7.49456C3.68569 8.10994 4.00238 8.68988 4.24875 9.12919C4.917 10.2896 5.77819 11.4321 6.76256 12.381C7.74694 13.3299 8.90737 14.1214 10.2079 14.5961C10.9639 14.8948 11.7199 15.2289 12.5636 15.2289C12.9855 15.2289 13.5834 15.0709 14.1279 14.8419C14.6556 14.6136 15.1297 14.262 15.3058 13.8401C15.3761 13.6821 15.4639 13.4711 15.5167 13.2248C15.5696 12.9964 15.6045 12.7674 15.6045 12.6094C15.6045 12.5216 15.6045 12.4333 15.5871 12.4159C15.5342 12.3101 15.411 12.2224 15.2704 12.1346C14.9537 11.9766 14.9014 11.9237 14.4266 11.6424C13.9344 11.3612 13.4248 11.0445 12.9849 10.8161C12.774 10.6929 12.6334 10.6401 12.5805 10.6401C12.2992 10.6401 11.9477 11.0271 11.649 11.4489C11.3323 11.8708 10.9808 12.2578 10.7349 12.2578C10.6118 12.2578 10.4886 12.2049 10.3479 12.1172C10.2073 12.0294 10.0667 11.9591 9.97894 11.9063C8.43206 11.0271 7.39481 9.99038 6.51619 8.46094C6.41044 8.28488 6.16462 7.91588 6.16462 7.72238C6.16462 7.494 6.48131 7.23019 6.79744 6.94894C7.09613 6.68513 7.41281 6.369 7.41281 5.982C7.41281 5.92913 7.37738 5.77106 7.30706 5.54269C7.149 5.08538 6.93806 4.55831 6.762 4.04869C6.67425 3.80231 6.60394 3.62681 6.58594 3.53906C6.5505 3.48619 6.53306 3.41588 6.51562 3.32813C6.49819 3.24038 6.46275 3.17006 6.44531 3.09975C6.39244 2.94169 6.30469 2.8185 6.21694 2.74819C6.12919 2.71275 5.91825 2.66044 5.70731 2.64244C5.49637 2.64244 5.25 2.625 5.14481 2.625C5.09194 2.625 5.02163 2.625 4.95131 2.64244H4.72294C4.16044 2.88881 3.756 3.381 3.45731 3.96094C3.17606 4.54088 3 5.19169 3 5.77163H3.00056Z" fill="white"/>
</g>
</svg>
